X: 2061
T: PAY AS YOU GO
C:
Q: "Strathspey."
R: Strathspey.
%R: strathspey
B: James Kerr "Merry Melodies" v.2 p.9 #61
Z: 2016 John Chambers <jc:trillian.mit.edu>
M: C
L: 1/16
K: Am
|:\
(vEA3)uA3uB (cB)A^G A4 | (vEA3)uA3uc vB3vGud3uB |\
(EA3)A3B (cB)A^G A3u^f | gb3 eg3 dg3 BG3 ::\
vaA3 vc3uB vA3vE uA4 |
vc3vBuA3ue cA3eA3 |\
[1 aA3 c3B A3E A4 | gb3 eg3 dg3 BG3 :|\
[2 gb3 eg3 dg3 BG3 | e3gd3g BG3dB3 |]
